X:1
T:# / 2 landini: lasso di dona
%%score 1 2 3
L:1/8
Q:1/4=80
M:4/4
K:C
V:1 treble-8 nm="T"
V:2 bass nm="T"
V:3 bass nm="Co"
V:1
"^A" d2 ^c2 | z d2 c d4 |"^Lasso, di donna""^(Ballata)" z e2 d e4 | e2 d e2 d2 c | %4
w: Las- *|so! di don-|na * va-|na~in- na- mo- ra- *|
 e2 z2 e d2"^Francesco Landini""^(1325-1397)" e | ^f4 g2 =fe- |[M:4/4][K:treble-8] e d2 f e d2 c | %7
w: to Son * *|che pur mi lu-|* \-sin- gha con * in-|
 d2 z2 e2 d2 | e^f g2 a2 ^g2 | a2 gf e2 f2 | e4 d4 | ^f8 | g4 a2 gf | e2 d2 ^c2 d2 | e2 z2 d2 cd | %15
w: ghan- \-~no, Dam-|mi * spe- ran- *|\-ça non mi to- gli~af-|fan- *||no, Per- ch'è fal-|la- ce'l suo ben|di\- \-si- a *|
 ef g2 a2-"^?" ag- | g f2 e2 d2 f- | f e2 d2 ^c2 B | d8 |]:"^B" e4 d4 | a2 gf e2 e2 | %21
w: |||to|I' mi|dol- go che tan- to|
 feed d ^c2 B | d2 z2 d e2 f | g4 f e2 d | ^c2 d2 e2 z =c | B A2 G A4 | d c2 d e2 z2 | fg a3 d2 e | %28
w: su'a- * mor * fel- * *|\-lo Se- * *|\-gui- to * *|già che mu- ta-|to'l * ca- pel-|||
 f e2 d ^c4 | d2 e2 e d2 c | e4 ^g4 | a4 a2 gf | e2 d2 ^c2 d2 | e2 z2 d2 cd | ef g2 a3 g- | %35
w: * * * lo,||Mi *|* ve- gio *|fac- to per bian-|che- ça * *|vi- * * * *|
 g f2 e2 d2 f- |1 f e2 d2 c2 d || e4 :|2 f e2 d2 c2 B || d8 |] %40
w: ||le;||le.|
V:2
 D,2 E,2 | F,2 E,2 D,4 | A,4 A,B,^CD | C2 B,A, G,2 F,2 | E,4 G,4 | A,4 G,4 |[M:4/4] D,4 E,4 | %7
 D,4 G,4 | E,4 F,2 E,2 | D,4 ^C2 D2 | A,B, ^C2 D2 CB, | A,8 | G,4 D,4 | A,4 A, G,2 F, | %14
 E,2 D,2 F,4 | E,4 D,4 | D2 ^C2 D4 | A,4 F,2 E,2 | D,8 |]: G,4 D,4 | F,2 E,2 A,4 | G,2 F,2 E,4 | %22
 D,4 G,2 A,2 | G,4 D4 | A,2 B,2 A,4 | E,4 D,4 | F,4 E,4 | D4 A,B, ^C2 | D2 CD E4 | %29
 B,2 A,2 G,2 F,2 | (E,8 | A,4) D,4 | A,4 A, G,2 F, | E,2 D,2 F,4 | E,4 D,4 | D2 ^C2 D4 |1 %36
"^Verto" A,4 G,2 F,2 || E,4 :|2"^Chiuso" A,4 F,2 E,2 || D,8 |] %40
V:3
 A,2 E,2 | D,2 ^G,2 z A,2 B, | A,4 z4 | A,4 B,2 A,2 | B,8 | ^C4 ED=CB, |[M:4/4] z2 A,2 ^G,4 | %7
 A,4 B,4 | z2 E2 z D2 C | D4 A, G,2 F, | A,4 D,4- | D,4 A,B, ^C2 | D8 | A,4 z4 | B, C2 D2 A,2 A,- | %15
 A, B,2 C D4 | D,2 E,2 F,2 D,2 | A,2 z D, A,2 ^G,2 | A,8 |]: B,4 A,4 | D2 EC z2 E2 | %21
 B,2 A,2 z2 ^G,2 | A,4 B,2 C2 | D4 z4 | E2 D2 CB, A,2 | B,2 C2 D2 A,2 | z2 G,A, B,2 ^C2 | %27
 z2 D2 D,2 E,2 | D,4 A,4 | ^G,2 z A, B,2 A,2 | B,4 B,2 E2- | E2 E2 D4 | A,4 z4 | B, C2 D2 A,2 A,- | %34
 A, B,2 C D4 | D,2 E,2 F,2 D,2 |1"^Verto" A,2 z D, G,2 A,2 || %37
"^1.(A) Lasso! di donna vana innamorato""^Son che pur mi lusingha con inghanno,""^Dammi sperança non mi togli affano,""^Perch'è fallace'l suo ben disiato.""^2.(B) I' mi dolgo che tantosu'amor fello,""^Seguito già che mutato'l capello,""^Mi vegio facto per biancheça vile.""^3.(B) Piacer non è che mai potessi averlo""^Ma le promesse dolci e'l viso bello""^A llei sança ragion mi ffanno umile" B,4 :|2 %38
"^Chiuso" A,2"^4.(A) Ben ch'  i' conosca il suo malveggio stile""^Ancor la mente stolta non si saçia""^Fammi si incontro, non prendo la gratia.""^Altri che'l vero amante fa beato.""^5.(A) Lasso, di donna...." z D, A,2 ^G,2 || %39
 A,8 |] %40

